icons/desktop/16/svg/lock-16.svg

<svg width="16" height="16" viewBox="0 0 16 16" fill="none" xmlns="http://www.w3.org/2000/svg">
<path fill-rule="evenodd" clip-rule="evenodd" d="M8 0C10.2092 0 12 1.79079 12 4V6.31152C13.1738 6.63827 14 7.72243 14 8.95801V13.042C14 14.4362 12.9615 15.6005 11.585 15.7744C10.5075 15.911 9.30603 16 8 16C6.94622 16 5.72798 15.941 4.38477 15.7695C3.01026 15.5944 2 14.4089 2 13.042V8.95801C2 7.70801 2.83532 6.64486 4 6.3125V4C4 1.79079 5.79079 0 8 0ZM8 7.5C6.76228 7.5 5.62393 7.5845 4.60352 7.71387C3.97003 7.79392 3.5 8.32625 3.5 8.95801V13.042C3.5 13.6728 3.96811 14.205 4.5752 14.2822C5.84789 14.4447 7.00184 14.5 8 14.5C9.23772 14.5 10.3761 14.4155 11.3965 14.2861C12.03 14.2061 12.5 13.6738 12.5 13.042V8.95801C12.5 8.32732 12.0327 7.79512 11.4258 7.71777C10.1531 7.55529 8.99816 7.5 8 7.5ZM8 1.5C6.61921 1.5 5.5 2.61921 5.5 4V6.11133C6.28156 6.04273 7.11679 6 8 6C8.75397 6 9.59211 6.03036 10.5 6.11035V4C10.5 2.61921 9.38079 1.5 8 1.5Z" fill="black"/>
</svg>

<!-- This Source Code Form is subject to the terms of the Mozilla Public
   - License, v. 2.0. If a copy of the MPL was not distributed with this
   - file, You can obtain one at http://mozilla.org/MPL/2.0/. -->
<svg xmlns="http://www.w3.org/2000/svg" width="16" height="16" fill="context-fill" fill-opacity="context-fill-opacity" viewBox="0 0 16 16">
    <path fill-rule="evenodd" d="M8 0a4 4 0 0 1 4 4v2.312a2.75 2.75 0 0 1 2 2.646v4.084a2.755 2.755 0 0 1-2.415 2.732 28.5 28.5 0 0 1-7.2-.004C3.01 15.594 2 14.409 2 13.042V8.958c0-1.25.835-2.313 2-2.645V4a4 4 0 0 1 4-4m0 7.5a27 27 0 0 0-3.396.214A1.255 1.255 0 0 0 3.5 8.958v4.084c0 .63.468 1.163 1.075 1.24a27 27 0 0 0 6.821.004 1.255 1.255 0 0 0 1.104-1.244V8.958c0-.63-.467-1.163-1.074-1.24A27 27 0 0 0 8 7.5m0-6A2.5 2.5 0 0 0 5.5 4v2.111a28.6 28.6 0 0 1 5 0V4A2.5 2.5 0 0 0 8 1.5" clip-rule="evenodd" />
</svg>
